packages/foundations/assets/icons/functional/images/security/shield_check.svg

<svg xmlns="http://www.w3.org/2000/svg" width="32" height="32" fill="none"><path fill="#1A1C1F" fill-rule="evenodd" d="M15.253 2.18c-1.781.795-9.82 4.631-9.94 4.743-.307.289-.3.189-.299 3.915.002 3.514.032 4.221.237 5.509.908 5.709 4.129 10.092 9.705 13.206 1.054.589 1.034.589 2.088 0 1.925-1.075 3.431-2.192 4.827-3.58 2.663-2.646 4.261-5.802 4.878-9.634.205-1.267.235-1.987.237-5.501.001-3.726.008-3.626-.3-3.916-.089-.083-2.274-1.142-5.166-2.505l-5.013-2.36-.454-.016c-.404-.014-.491.001-.8.139m5.294 4.01 4.466 2.149-.001 2.431c-.001 3.407-.078 4.592-.403 6.211-.503 2.499-1.66 4.902-3.266 6.779-.364.425-1.328 1.382-1.823 1.811a20.3 20.3 0 0 1-3 2.131l-.52.304-.52-.304c-2.119-1.242-3.947-2.802-5.276-4.502-1.061-1.357-1.973-3.159-2.498-4.935-.569-1.924-.717-3.465-.718-7.495l-.001-2.431 4.493-2.166c2.471-1.191 4.517-2.158 4.547-2.149s2.063.984 4.52 2.166m.333 4.823c-.029.01-.125.033-.213.052-.12.026-.859.733-2.908 2.778l-2.747 2.743-1.119-1.125C12.59 14.15 12.427 14.027 12 14.027c-.522 0-.91.341-.997.877-.065.4.01.496 1.763 2.262.922.928 1.737 1.705 1.832 1.746.226.098.557.095.804-.008.244-.101 6.242-6.066 6.448-6.413.357-.601-.019-1.357-.73-1.467a.8.8 0 0 0-.24-.011"/></svg>

<svg width="32" height="32" viewBox="0 0 32 32" fill="none" xmlns="http://www.w3.org/2000/svg"><path d="M15.253 2.180 C 13.472 2.975,5.433 6.811,5.313 6.923 C 5.006 7.212,5.013 7.112,5.014 10.838 C 5.016 14.352,5.046 15.059,5.251 16.347 C 6.159 22.056,9.380 26.439,14.956 29.553 C 16.010 30.142,15.990 30.142,17.044 29.553 C 18.969 28.478,20.475 27.361,21.871 25.973 C 24.534 23.327,26.132 20.171,26.749 16.339 C 26.954 15.072,26.984 14.352,26.986 10.838 C 26.987 7.112,26.994 7.212,26.686 6.922 C 26.597 6.839,24.412 5.780,21.520 4.417 L 16.507 2.057 16.053 2.041 C 15.649 2.027,15.562 2.042,15.253 2.180 M20.547 6.190 L 25.013 8.339 25.012 10.770 C 25.011 14.177,24.934 15.362,24.609 16.981 C 24.106 19.480,22.949 21.883,21.343 23.760 C 20.979 24.185,20.015 25.142,19.520 25.571 C 18.637 26.335,17.621 27.057,16.520 27.702 L 16.000 28.006 15.480 27.702 C 13.361 26.460,11.533 24.900,10.204 23.200 C 9.143 21.843,8.231 20.041,7.706 18.265 C 7.137 16.341,6.989 14.800,6.988 10.770 L 6.987 8.339 11.480 6.173 C 13.951 4.982,15.997 4.015,16.027 4.024 C 16.056 4.033,18.090 5.008,20.547 6.190 M20.880 11.013 C 20.851 11.023,20.755 11.046,20.667 11.065 C 20.547 11.091,19.808 11.798,17.759 13.843 L 15.012 16.586 13.893 15.461 C 12.590 14.150,12.427 14.027,12.000 14.027 C 11.478 14.027,11.090 14.368,11.003 14.904 C 10.938 15.304,11.013 15.400,12.766 17.166 C 13.688 18.094,14.503 18.871,14.598 18.912 C 14.824 19.010,15.155 19.007,15.402 18.904 C 15.646 18.803,21.644 12.838,21.850 12.491 C 22.207 11.890,21.831 11.134,21.120 11.024 C 21.017 11.008,20.909 11.003,20.880 11.013 " fill="#1A1C1F" stroke="none" fill-rule="evenodd"></path></svg>
